assets/svg/icon_wallet_link.svg

<svg width="24" height="24" viewBox="0 0 24 24" fill="none" xmlns="http://www.w3.org/2000/svg">
<path d="M8.8 16.7953C6.53726 16.7953 5.40589 16.7953 4.70294 16.0924C4 15.3894 4 14.2581 4 11.9953C4 9.73257 4 8.6012 4.70294 7.89826C5.40589 7.19531 6.53726 7.19531 8.8 7.19531C11.0627 7.19531 12.1941 7.19531 12.8971 7.89826C13.6 8.6012 13.6 9.73257 13.6 11.9953" stroke="#0E0E0E" stroke-width="1.5" stroke-linecap="round" stroke-linejoin="round"/>
<path d="M10.4004 11.9953C10.4004 14.2581 10.4004 15.3894 11.1033 16.0924C11.8063 16.7953 12.9376 16.7953 15.2004 16.7953C17.4631 16.7953 18.5945 16.7953 19.2974 16.0924C20.0004 15.3894 20.0004 14.2581 20.0004 11.9953C20.0004 9.73257 20.0004 8.6012 19.2974 7.89826C18.5945 7.19531 17.4631 7.19531 15.2004 7.19531" stroke="#0E0E0E" stroke-width="1.5" stroke-linecap="round" stroke-linejoin="round"/>
</svg>

<svg xmlns="http://www.w3.org/2000/svg" width="24" height="24" fill="none"><path stroke="#0E0E0E" stroke-linecap="round" stroke-linejoin="round" stroke-width="1.5" d="M8.8 16.795c-2.263 0-3.394 0-4.097-.703S4 14.258 4 11.995c0-2.262 0-3.394.703-4.097s1.834-.703 4.097-.703 3.394 0 4.097.703.703 1.835.703 4.097"/><path stroke="#0E0E0E" stroke-linecap="round" stroke-linejoin="round" stroke-width="1.5" d="M10.4 11.995c0 2.263 0 3.394.703 4.097s1.835.703 4.097.703 3.395 0 4.097-.703.703-1.834.703-4.097c0-2.262 0-3.394-.703-4.097s-1.834-.703-4.097-.703"/></svg>
